outputs/icons/file/shared_folder_round.svg

<svg xmlns="http://www.w3.org/2000/svg" width="1200" height="1200" fill="none"><path fill="#000" d="M1000 295.588H600L500 200H200c-55 0-99.5 43.014-99.5 95.588L100 869.12c0 52.57 45 95.585 100 95.585h800c55 0 100-43.015 100-95.585V391.176c0-52.573-45-95.588-100-95.588m0 573.532H200V295.588h258.5l100 95.588H1000zM750 630.145c55 0 100-43.015 100-95.585 0-52.575-45-95.589-100-95.589s-100 43.014-100 95.589c0 52.57 45 95.585 100 95.585m-200 191.18h400V773.53c0-63.565-133.5-95.59-200-95.59s-200 32.025-200 95.59z"/></svg>

<svg width="1200" height="1200" viewBox="0 0 1200 1200" fill="none" xmlns="http://www.w3.org/2000/svg"><path d="M1000 295.588H600L500 200H200C145 200 100.5 243.014 100.5 295.588L100 869.12C100 921.69 145 964.705 200 964.705H1000C1055 964.705 1100 921.69 1100 869.12V391.176C1100 338.603 1055 295.588 1000 295.588ZM1000 869.12H200V295.588H458.5L558.5 391.176H1000V869.12ZM750 630.145C805 630.145 850 587.13 850 534.56C850 481.985 805 438.971 750 438.971C695 438.971 650 481.985 650 534.56C650 587.13 695 630.145 750 630.145ZM550 821.325H950V773.53C950 709.965 816.5 677.94 750 677.94C683.5 677.94 550 709.965 550 773.53V821.325Z" fill="black"/></svg>
